X: 1481
T: Keeper Hill   #2
T: cnoc ceupeir.
R: reel
%S: s:4 b:16(4+4+4+4)
O: Cronin
B: O'Neill's Music of Ireland, 1481
Z: John B. Walsh, 8/22/96
M: C|
L: 1/8
K: A
"^A"|: A,2A,C EDEF | AGAc BABc |1 A,2A,C EDEF | ABcA BAFA :|2 defd cdec | BABc BAFA |]
"^B"|: cAae cAae | cAag fedc |1 dBbf dBbf | dBba gfed :|2 defg agae | dBcA BAFA |]
